!!!ONB: MCCC : IEG0033_04 : Extracted Monophonic Melody
!!!COM: Grieg, Edvard
!!!OPR: Fra Holbergs tid, Suite i gammel stil
!!!OMV: 4
!!!SCT: Op.40
!!!ODT: 1884///
**kern
*staff1
=1
*clefG2
*k[b-e-]
*B-:
*M3/4
4dd
2dd
=2
48dd
48cc
48b-
16r
8r
2cc
=3
4cc
2cc
=4
48cc
48b-
48a
16r
8r
2b-
=5
4.ff
8dd
8b-
8a-
=6
32a-
32g
32f
32g
48f
48g
48a-
16r
2g
=7
8r
8dd[
16dd]
16b
16b
16g
16g
16a-
16a-
16f
=8
32f
32e-
32d
32e-
48d
48e-
48f
16r
2e-
=9
8r
8f#
8f#
8f#
8f#
8f#
=10
8g
8g
8g
8g
8g
8g
=11
8r
8dd-
8dd-
8dd-
8dd-
8dd-
=12
8dd
8dd
8dd
8dd
8dd
16.cc#
32dd
=13
2dd[
8.dd]
16cc
=14
16cc
16b
16b
16b-
16b-
16a
8a
32dd
32cc#
32b
32dd-[
16dd-]
16dd
=15
2.dd
=16
4dd
2dd
=17
48dd
48cc
48b-
16r
8r
2cc
=18
4cc
2cc
=19
48cc
48b-
48a
16r
8r
2b-
=20
4.ff
8dd
8b-
8a-
=21
32a-
32g
32f
32g
48f
48g
48a-
16r
2g
=22
8r
8dd[
16dd]
16b
16b
16g
16g
16a-
16a-
16f
=23
32f
32e-
32d
32e-
48d
48e-
48f
16r
2e-
=24
8r
8f#
8f#
8f#
8f#
8f#
=25
8g
8g
8g
8g
8g
8g
=26
8r
8dd-
8dd-
8dd-
8dd-
8dd-
=27
8dd
8dd
8dd
8dd
8dd
16.cc#
32dd
=28
2dd[
8.dd]
16cc
=29
16cc
16b
16b
16b-
16b-
16a
8a
32dd
32cc#
32b
32dd-[
16dd-]
16dd
=30
2.dd
=31
4dd
2dd
=32
16ff
16ee-
16ee-
16dd
48dd
48ee-
48ff
16r
8r
4ee-
=33
4r
4.ff
8cc
=34
16ee-
16dd
16dd
16cc
48cc
48dd
48ee-
8.dd
8.ee-
16b-
=35
16dd
16cc
16cc
16dd
16dd
16a
16a
16cc
16cc
16b-
16b-
16cc
=36
16cc
16g
16g
16b-
16b-
16a
16a
16f
48f
48ff
12ff
8ff[
=37
16ff]
16ee-
16ee-
16cc
16cc
16ee-
16ee-
16ff
48f
48ff
12ff
8ff[
=38
16ff]
16ee-
16ee-
16cc
16cc
16ee-
16ee-
16ff
16ff
16cc
16cc
16gg
=39
16gg
16dd
16dd
16ff
16ff
16cc
16cc
16gg
16gg
16dd
16dd
16ff
=40
16ff
16b-
16b-
16cc
4.cc[
16cc]
16gg
=41
4gg[
16gg]
16bb-
16bb-
16aa
16aa
16ff
16ff
16gg
=42
16gg
16aa
16aa
16bb-
16bb-
16aa
16aa
16gg
16gg
16cc
16cc
16ff
=43
16ff
16b-
16b-
16cc
4.cc[
16cc]
16b-
=44
2.r
=45
2.r
=46
4f#[
16f#]
16e
16e
16d
16e
16f#
16f#
16g
=47
2.r
=48
4f#[
16f#]
16e
16e
16d
16e
16f#
24a
24g
24f#
=49
2.r
=50
4f#[
16f#]
16e
16e
16f#
4f#[
=51
16f#]
16e
16e
16f#
4f#[
16f#]
16e
16e
16f#
=52
16f#
16e
16e
16f#
16f#
16e
16e
16f#
16f#
16e
16e
16f#
=53
16f#
16g
16g
16a-
16a-
16a
16a
16dd
16dd
16dd-
16dd-
16dd
=54
16dd
16dd-
16dd-
16dd
16dd
16dd-
16dd-
16dd
16dd
16dd-
16dd-
16dd
=55
16r
16dd-
16dd-
16dd
16dd
16dd-
16dd-
16dd
16dd
16dd-
16dd-
16dd
=56
16r
16b
16b
16cc
16cc
16b
16b
16cc
16cc
16b
16b
16cc
=57
16r
16b
16b
16cc
16cc
16b
16b
16cc
16cc
16b
16b
16cc
=58
16r
16a
16a
16b-
16b-
16a
16a
16b-
16b-
16a
16a
16b-
=59
16r
16ee
16ee
16ff
16ff
16ee
16ee
16ff
16ff
16ee
16ee
16ff
=60
16r
16a
16a
16b-
16b-
16a
16a
16b-
16b-
16f#
16f#
16g
=61
16r
16dd-
16dd-
16dd
16dd
16dd-
16dd-
16dd
16dd
16dd-
16dd-
16dd
=62
16r
16f#
16f#
16g
16g
16f#
16f#
16g
16g
16d
16d
16e-
=63
4F#
4f#[
16f#]
16a
16g
16f#
=64
16a
16g
32.f#
64g[
32g]
96f#
96g
96a
2g
=65
4B
4b[
16b]
16dd
16cc
16b
=66
16dd
16cc
32.b
64cc[
32cc]
96b
96cc
96dd
2cc
=67
8r
8ff#
8ff#
8ff#
8ff#
8ff#
=68
8gg
8gg
8gg
8gg
8gg
16.ff#
32gg
=69
2.gg
=70
16ff
16ff
48r
48ee
12ee
16ee-
16ee-
16dd
16dd[
32.dd]
64gg[
96gg]
96ff#
48ee
48ff#[
8ff#]
=71
4gg
2gg[
=72
2gg]
4r
==
*-
